X: 4
T: Shandon Bells
R: jig
M: 6/8
L: 1/8
K: Gmaj
|:DB,G, G,B,D|GAG GED|ECA, A,B,D|E2 D EFG|DB,G, G,B,D|GAG GED|EFG AFD|1 G3 GFE:|2 G3 G2 A:||B2 G GFG|B2 d dBG|FDD ADD|FEF ABc|B2 G GFG|Bdd dBG|EFG AFD|G3 G2 A||B2 G GFG|B2 d dBG|F2 D ADD|FEF Abc|B2 G GFG|Bdd dBG|EFG AFD|G3 GFE|


Tune 1200	Setting 14487

